public/brands/devbox.svg

<svg width="240" height="59" viewBox="0 0 240 59" fill="none" xmlns="http://www.w3.org/2000/svg">
<path fill-rule="evenodd" clip-rule="evenodd" d="M10.6122 0C4.75127 0 0 4.75127 0 10.6122V48.1633C0 54.0242 4.75127 58.7755 10.6122 58.7755H48.1633C54.0242 58.7755 58.7755 54.0242 58.7755 48.1633V10.6122C58.7755 4.75127 54.0242 0 48.1633 0H10.6122ZM35.4708 14.1401L29.9886 13.0612C29.1984 16.7782 28.4099 20.4886 27.6218 24.1965C26.1737 31.0091 24.7275 37.8135 23.2771 44.6354C25.0261 44.9782 26.7228 45.3125 28.441 45.6512L28.7613 45.7143C31.0011 35.1757 33.231 24.6825 35.4708 14.1401ZM14.0667 24.4088C15.7611 22.6701 17.4557 20.9314 19.1561 19.1876V19.1857C19.7937 19.7572 20.4224 20.3206 21.0507 20.8836C21.7773 21.5346 22.5033 22.1851 23.2416 22.8471C22.8069 23.294 22.3735 23.7395 21.9407 24.1844C20.1793 25.9951 18.4291 27.7942 16.6484 29.6238C18.0246 31.0402 19.3961 32.4513 20.7775 33.8727C21.595 34.7137 22.4161 35.5584 23.2437 36.41C22.1722 37.38 21.1129 38.3406 20.0291 39.3233C19.7401 39.5855 19.4493 39.8491 19.1561 40.115C15.7699 36.6262 12.3993 33.1525 8.97959 29.6276C10.6793 27.8846 12.373 26.1467 14.0667 24.4088ZM42.2193 21.8562C44.7447 24.4464 47.266 27.0324 49.7959 29.6257V29.6276C47.6536 31.8369 45.5185 34.0379 43.3775 36.2449C42.1283 37.5326 40.8771 38.8223 39.6214 40.117C39.1837 39.7202 38.7508 39.3278 38.3201 38.9376C37.3881 38.093 36.4669 37.2582 35.5318 36.41C36.3576 35.5606 37.178 34.7166 37.9975 33.8735C39.3696 32.462 40.7389 31.0534 42.1251 29.6276C39.9366 27.375 37.7579 25.1338 35.5339 22.8471C36.0802 22.3576 36.6208 21.873 37.1614 21.3884C37.9737 20.6602 38.786 19.9321 39.6175 19.1876C40.4855 20.078 41.3527 20.9673 42.2193 21.8562Z" fill="#F8F4E9"/>
<path d="M91.1087 45.5255C89.2801 45.5255 87.6866 44.9682 86.3283 43.8537C84.987 42.7217 83.9422 41.1282 83.1936 39.0733C82.445 37.0009 82.0703 34.5802 82.0703 31.8112C82.0703 29.0597 82.445 26.6564 83.1936 24.6014C83.9422 22.529 84.987 20.9356 86.3283 19.821C87.6866 18.689 89.2801 18.1231 91.1087 18.1231C92.6066 18.1231 93.8426 18.4975 94.8181 19.2463C95.7936 19.9952 96.5332 20.9704 97.0385 22.1721C97.5609 23.3737 97.9528 24.7494 98.214 26.2994V37.3492C97.9528 38.8992 97.5609 40.2749 97.0385 41.4765C96.5332 42.6608 95.7936 43.636 94.8181 44.4023C93.8426 45.1511 92.6066 45.5255 91.1087 45.5255ZM94.6874 39.1516C95.5062 39.1516 96.2026 38.9427 96.7773 38.5247C97.3519 38.0894 97.796 37.5843 98.1095 37.0096V26.639C97.796 26.0643 97.3519 25.5592 96.7773 25.1239C96.2026 24.6886 95.5062 24.4708 94.6874 24.4708C93.7821 24.4708 93.0066 24.7582 92.3625 25.3329C91.7185 25.8902 91.2221 26.7174 90.8736 27.8145C90.543 28.9117 90.3772 30.2439 90.3772 31.8112C90.3772 33.396 90.543 34.737 90.8736 35.8341C91.2221 36.9312 91.7185 37.7584 92.3625 38.3157C93.0066 38.873 93.7821 39.1516 94.6874 39.1516ZM98.1095 8.9541H106.416V44.8986H98.1095V8.9541ZM123.589 45.5255C125.713 45.5255 127.489 45.2469 128.918 44.6896C130.363 44.1149 131.452 43.5315 132.183 42.9394V37.2447C131.295 37.6627 130.31 38.0197 129.231 38.3157C128.168 38.6118 126.949 38.7598 125.574 38.7598C123.936 38.7598 122.535 38.4986 121.368 37.9761C120.219 37.4537 119.339 36.6961 118.73 35.7035C118.12 34.7108 117.816 33.5266 117.816 32.1508V30.2961C117.816 29.0597 117.981 28.0061 118.312 27.1353C118.643 26.2472 119.104 25.5854 119.696 25.15C120.305 24.6972 121.011 24.4708 121.812 24.4708C122.596 24.4708 123.266 24.6537 123.824 25.0194C124.398 25.3677 124.834 25.9076 125.13 26.639C125.443 27.3704 125.6 28.276 125.6 29.3557H128.944V29.0684H113.662V33.457H132.941V30.1394C132.941 27.5794 132.478 25.4025 131.556 23.6088C130.633 21.7976 129.318 20.4306 127.612 19.5076C125.905 18.5846 123.91 18.1231 121.629 18.1231C119.383 18.1231 117.372 18.6978 115.595 19.8472C113.836 20.9966 112.461 22.6161 111.468 24.7059C110.475 26.7957 109.979 29.199 109.979 31.9157C109.979 34.6151 110.545 37.0009 111.677 39.0733C112.808 41.1282 114.402 42.7217 116.457 43.8537C118.512 44.9682 120.889 45.5255 123.589 45.5255ZM153.896 44.8986L159.252 18.75H150.814L146.739 42.7827L142.664 18.75H134.122L139.451 44.8986H153.896ZM162.172 8.9541H170.453V37.3753H170.558L168.468 44.8986H162.172V8.9541ZM177.48 45.5255C175.982 45.5255 174.745 45.1511 173.771 44.4023C172.795 43.636 172.047 42.6608 171.524 41.4765C171.019 40.2749 170.627 38.8992 170.349 37.3492V26.2994C170.627 24.7494 171.019 23.3824 171.524 22.1982C172.047 20.9966 172.795 20.0213 173.771 19.2725C174.745 18.5062 175.982 18.1231 177.48 18.1231C179.291 18.1231 180.876 18.689 182.234 19.821C183.593 20.9356 184.638 22.529 185.369 24.6014C186.118 26.6564 186.492 29.0597 186.492 31.8112C186.492 34.5802 186.118 37.0009 185.369 39.0733C184.638 41.1282 183.593 42.7217 182.234 43.8537C180.876 44.9682 179.291 45.5255 177.48 45.5255ZM173.901 39.1516C174.807 39.1516 175.581 38.873 176.226 38.3157C176.87 37.7584 177.358 36.9312 177.689 35.8341C178.037 34.737 178.212 33.396 178.212 31.8112C178.212 30.2439 178.037 28.9117 177.689 27.8145C177.358 26.7174 176.87 25.8902 176.226 25.3329C175.581 24.7582 174.807 24.4708 173.901 24.4708C173.083 24.4708 172.386 24.6886 171.812 25.1239C171.237 25.5592 170.784 26.0643 170.453 26.639V37.0096C170.784 37.5843 171.237 38.0894 171.812 38.5247C172.386 38.9427 173.083 39.1516 173.901 39.1516ZM201.854 45.5255C199.311 45.5255 197.091 44.9508 195.193 43.8014C193.312 42.6521 191.858 41.0412 190.83 38.9688C189.82 36.8964 189.315 34.5106 189.315 31.8112C189.315 29.1119 189.82 26.7261 190.83 24.6537C191.858 22.5813 193.312 20.9792 195.193 19.8472C197.091 18.6978 199.311 18.1231 201.854 18.1231C204.397 18.1231 206.608 18.6978 208.489 19.8472C210.387 20.9792 211.842 22.5813 212.852 24.6537C213.861 26.7261 214.367 29.1119 214.367 31.8112C214.367 34.5106 213.861 36.8964 212.852 38.9688C211.842 41.0412 210.387 42.6521 208.489 43.8014C206.608 44.9508 204.397 45.5255 201.854 45.5255ZM201.854 38.9949C202.759 38.9949 203.526 38.7076 204.153 38.1329C204.797 37.5582 205.276 36.7397 205.589 35.6774C205.92 34.5976 206.086 33.309 206.086 31.8112C206.086 30.331 205.92 29.051 205.589 27.9712C205.276 26.8915 204.797 26.0643 204.153 25.4896C203.526 24.9149 202.759 24.6276 201.854 24.6276C200.931 24.6276 200.156 24.9149 199.529 25.4896C198.902 26.0643 198.423 26.8915 198.092 27.9712C197.779 29.051 197.622 30.331 197.622 31.8112C197.622 33.309 197.779 34.5976 198.092 35.6774C198.423 36.7397 198.902 37.5582 199.529 38.1329C200.156 38.7076 200.931 38.9949 201.854 38.9949ZM221.581 30.5835H227.798V33.3263L222.756 44.8986H214.632L221.581 30.5835ZM225.133 32.6472H221.633L214.841 18.75H223.226L228.869 30.9753H232.421L239.239 44.8986H230.776L225.133 32.6472ZM226.387 29.5647L231.011 18.75H239.03L232.604 32.3076H226.387V29.5647Z" fill="#F8F4E9"/>
</svg>

<svg xmlns="http://www.w3.org/2000/svg" width="240" height="59" fill="none"><path fill="#F8F4E9" fill-rule="evenodd" d="M10.612 0C4.752 0 0 4.751 0 10.612v37.551c0 5.861 4.751 10.613 10.612 10.613h37.551c5.861 0 10.613-4.752 10.613-10.613v-37.55C58.776 4.75 54.024 0 48.163 0zm24.859 14.14-5.482-1.079-2.367 11.136-4.345 20.438c1.75.343 3.446.678 5.164 1.016l.32.063zM14.067 24.41q2.54-2.608 5.09-5.221v-.002l4.085 3.661-1.301 1.337-5.293 5.44 4.13 4.249 2.466 2.537-3.215 2.913-.873.792L8.98 29.628q2.548-2.613 5.087-5.22m28.152-2.553 7.577 7.77v.002l-6.419 6.617-3.756 3.872-1.3-1.18-2.79-2.527 6.594-6.782a10603 10603 0 0 0-6.591-6.78l4.084-3.66z" clip-rule="evenodd"/><path fill="#F8F4E9" d="M91.109 45.526q-2.743 0-4.78-1.672-2.013-1.698-3.135-4.78-1.124-3.11-1.124-7.263 0-4.127 1.124-7.21 1.122-3.108 3.134-4.78 2.038-1.698 4.78-1.698 2.248 0 3.71 1.123 1.463 1.124 2.22 2.926.784 1.802 1.176 4.127v11.05q-.392 2.325-1.175 4.128-.758 1.776-2.22 2.925-1.463 1.125-3.71 1.124m3.578-6.374q1.23 0 2.09-.627a4.8 4.8 0 0 0 1.332-1.515V26.639a4.8 4.8 0 0 0-1.332-1.515q-.86-.653-2.09-.653-1.357 0-2.325.862-.965.835-1.488 2.482-.497 1.646-.497 3.996 0 2.378.497 4.023.523 1.645 1.489 2.482.967.836 2.324.836M98.11 8.954h8.307V44.9H98.11zm25.48 36.572q3.186-.001 5.329-.836 2.168-.862 3.265-1.75v-5.695q-1.333.627-2.952 1.07-1.594.445-3.657.445-2.456 0-4.206-.784-1.724-.783-2.638-2.273-.915-1.488-.914-3.552v-1.855q0-1.855.496-3.16.496-1.333 1.384-1.986.914-.68 2.116-.68 1.175 0 2.012.55.861.522 1.306 1.619.47 1.097.47 2.717h3.344v-.288h-15.282v4.389h19.279v-3.318q-.001-3.84-1.385-6.53-1.385-2.716-3.944-4.101-2.561-1.385-5.983-1.385-3.369 0-6.034 1.724-2.638 1.725-4.127 4.859-1.49 3.135-1.489 7.21 0 4.05 1.698 7.157a11.9 11.9 0 0 0 4.78 4.78q3.082 1.672 7.132 1.672m30.307-.627 5.356-26.149h-8.438l-4.075 24.033-4.075-24.033h-8.542l5.329 26.149zm8.276-35.945h8.281v28.421h.105l-2.09 7.524h-6.296zm15.308 36.572q-2.248 0-3.709-1.124-1.463-1.149-2.247-2.925-.758-1.803-1.175-4.128V26.3q.417-2.325 1.175-4.1.784-1.803 2.247-2.927 1.462-1.149 3.709-1.149 2.717 0 4.754 1.698 2.038 1.672 3.135 4.78 1.123 3.083 1.123 7.21 0 4.154-1.123 7.262-1.097 3.083-3.135 4.78-2.037 1.672-4.754 1.672m-3.579-6.374q1.358 0 2.325-.836.966-.837 1.463-2.482.523-1.646.523-4.023 0-2.351-.523-3.997-.497-1.646-1.463-2.481-.967-.862-2.325-.862-1.227 0-2.089.653a5.1 5.1 0 0 0-1.359 1.515v10.37q.496.862 1.359 1.516.862.627 2.089.627m27.953 6.374q-3.814 0-6.661-1.725-2.821-1.724-4.363-4.832-1.515-3.109-1.515-7.158t1.515-7.157q1.542-3.11 4.363-4.807 2.847-1.724 6.661-1.724t6.635 1.724q2.848 1.698 4.363 4.807 1.514 3.108 1.515 7.157 0 4.05-1.515 7.158t-4.363 4.832q-2.821 1.724-6.635 1.724m0-6.531q1.358 0 2.299-.862.966-.862 1.436-2.456.497-1.62.497-3.866 0-2.22-.497-3.84-.47-1.62-1.436-2.481-.941-.862-2.299-.862-1.385 0-2.325.862t-1.437 2.481q-.47 1.62-.47 3.84 0 2.247.47 3.866.496 1.594 1.437 2.456.94.862 2.325.862m19.727-8.411h6.217v2.742L222.756 44.9h-8.124zm3.552 2.063h-3.5l-6.792-13.897h8.385l5.643 12.225h3.552l6.818 13.924h-8.463zm1.254-3.082 4.624-10.815h8.019l-6.426 13.558h-6.217z"/></svg>
